assets/images/common/icon-check-02.svg

<svg xmlns="http://www.w3.org/2000/svg" width="24" height="24" viewBox="0 0 24 24" fill="none">
  <path fill-rule="evenodd" clip-rule="evenodd" d="M19.1863 11.8616L19.1863 11.8613L20.9985 11.8286C21.0107 12.5054 20.9505 13.1767 20.8217 13.8322C20.5206 15.3638 19.8445 16.8084 18.8405 18.0305C17.4069 19.7755 15.3985 20.9528 13.1755 21.3511C10.9525 21.7494 8.66027 21.3427 6.70994 20.204C4.75962 19.0653 3.27877 17.269 2.53296 15.1372C1.78715 13.0055 1.82517 10.6778 2.64021 8.57159C3.45524 6.46537 4.99397 4.71839 6.98045 3.64396C8.96692 2.56953 11.2712 2.23794 13.48 2.70865C15.0269 3.03829 16.4561 3.74631 17.6463 4.7562C17.993 5.0503 18.3193 5.36999 18.6224 5.7134L20.5429 3.79291L21.9571 5.20712L11.9571 15.2071L11.25 15.9142L10.5429 15.2071L7.04289 11.7071L8.45711 10.2929L11.25 13.0858L17.3378 6.99804C16.2428 5.72007 14.7556 4.83358 13.1023 4.48125C11.3148 4.10035 9.45018 4.36868 7.84269 5.23813C6.23519 6.10758 4.99002 7.52126 4.33048 9.22567C3.67093 10.9301 3.64016 12.8137 4.24369 14.5387C4.84721 16.2638 6.04555 17.7174 7.62379 18.6388C9.20203 19.5603 11.0569 19.8894 12.8558 19.5671C14.6548 19.2448 16.28 18.2921 17.4401 16.88C18.6002 15.4679 19.2192 13.6888 19.1863 11.8616Z" fill="#36BAC1"/>
</svg>

<svg xmlns="http://www.w3.org/2000/svg" width="24" height="24" fill="none" viewBox="0 0 24 24"><path fill="#36BAC1" fill-rule="evenodd" d="M19.186 11.862L21 11.828a9.502 9.502 0 0 1-14.29 8.375 9.5 9.5 0 1 1 11.913-14.49l1.92-1.921 1.415 1.414-10 10-.707.707-.707-.707-3.5-3.5 1.414-1.414 2.793 2.793 6.088-6.088a7.688 7.688 0 1 0 1.848 4.864z" clip-rule="evenodd"/></svg>
